src/main/resources/icons/AllIcons/nodes/locked.svg

<!-- Copyright 2000-2021 JetBrains s.r.o. Use of this source code is governed by the Apache 2.0 license that can be found in the LICENSE file. -->
<svg xmlns="http://www.w3.org/2000/svg" xmlns:xlink="http://www.w3.org/1999/xlink" width="16" height="16" viewBox="0 0 16 16">
  <defs>
    <path id="locked-a" d="M13.5,10 C13.2238576,10 13,10.3118017 13,10.6964286 L13,13.3035714 C13,13.6881983 13.2238576,14 13.5,14 C13.7761424,14 14,13.6881983 14,13.3035714 L14,10.6964286 C14,10.3118017 13.7761424,10 13.5,10 Z M13.5,9 C14.3284271,9 15,9.67157288 15,10.5 L15,13 C15,13.8284271 14.3284271,14.5 13.5,14.5 C12.6715729,14.5 12,13.8284271 12,13 L12,10.5 C12,9.67157288 12.6715729,9 13.5,9 Z"/>
  </defs>
  <g fill="none" fill-rule="evenodd">
    <rect width="5" height="4" x="11" y="12" fill="#9AA7B0"/>
    <use fill="#9AA7B0" xlink:href="#locked-a"/>
  </g>
</svg>

<svg xmlns="http://www.w3.org/2000/svg" xmlns:xlink="http://www.w3.org/1999/xlink" width="16" height="16" viewBox="0 0 16 16"><rect id="frame" width="16" height="16" fill="none"/><defs><path id="a" d="M13.5 10c-.276 0-.5.312-.5.696v2.608c0 .384.224.696.5.696s.5-.312.5-.696v-2.608c0-.384-.224-.696-.5-.696zm0-1a1.5 1.5 0 0 1 1.5 1.5V13a1.5 1.5 0 0 1-3 0v-2.5A1.5 1.5 0 0 1 13.5 9z"/></defs><g fill="#9AA7B0" fill-rule="evenodd"><path d="M11 12h5v4h-5z"/><use xlink:href="#a"/></g></svg>
